fs/vehicle_ship_16_filled.svg

<svg viewBox="0 0 16 16" fill="none" xmlns="http://www.w3.org/2000/svg" height="1em" width="1em">
  <path d="M6 2.5C6 2.22386 6.22386 2 6.5 2H9.5C9.77614 2 10 2.22386 10 2.5V4H12.5C12.7761 4 13 4.22386 13 4.5V8.02173L14.1988 8.54121C14.3283 8.59732 14.4281 8.70556 14.4734 8.8392C14.5188 8.97284 14.5056 9.11943 14.4371 9.24281L13.2923 11.3035C13.0775 10.9115 12.7857 10.5 12 10.5C11.1331 10.5 10.8674 11.001 10.6431 11.4239C10.4794 11.7328 10.3377 12 10 12C9.66235 12 9.52065 11.7328 9.35686 11.4239C9.13259 11.001 8.8669 10.5 8 10.5C7.1331 10.5 6.86741 11.001 6.64314 11.4239C6.47935 11.7328 6.33765 12 6 12C5.66235 12 5.52065 11.7328 5.35686 11.4239C5.13259 11.001 4.8669 10.5 4 10.5C3.21432 10.5 2.92248 10.9115 2.70773 11.3035L1.56292 9.24281C1.49438 9.11943 1.48117 8.97284 1.52656 8.8392C1.57195 8.70556 1.6717 8.59732 1.8012 8.54121L3 8.02173V4.5C3 4.22386 3.22386 4 3.5 4H6V2.5ZM8.99401 6.28582L12 7.5884V5H4V7.5884L7.00599 6.28582C7.64017 6.01101 8.35983 6.01101 8.99401 6.28582ZM7 4H9V3H7V4ZM4.05328 13.0701C4.42886 13.5208 5.0555 13.9971 5.99128 14L5.99989 14L6.0085 14C6.69628 13.9979 7.3415 13.7131 7.81657 13.2158C7.87902 13.1495 7.94034 13.0778 8 13C8.06076 13.0793 8.12327 13.1523 8.18693 13.2196C8.57099 13.6202 9.15882 13.9974 9.99128 14H9.8553L9.99982 14L10.0085 14C10.9443 13.9971 11.5709 13.5208 11.9465 13.0701C11.9735 13.0377 11.9993 13.0054 12.0239 12.9732C12.0621 13.0164 12.1029 13.06 12.1464 13.1036C12.6089 13.566 13.3587 14 14.5 14C14.7761 14 15 13.7762 15 13.5C15 13.2239 14.7761 13 14.5 13C13.6413 13 13.1411 12.684 12.8536 12.3965C12.5943 12.1372 12.4859 11.872 12.4738 11.8402C12.4411 11.7524 12.3917 11.675 12.319 11.6149C12.2301 11.5414 12.1171 11.4998 11.9998 11.4999C11.9255 11.4999 11.8531 11.5165 11.7875 11.5474C11.7493 11.5652 11.7143 11.5875 11.6828 11.6133C11.6128 11.6706 11.5575 11.7476 11.5264 11.8395C11.5053 11.8981 11.479 11.9551 11.4511 12.0108C11.3934 12.1263 11.304 12.2791 11.1783 12.4299C10.93 12.7278 10.5593 13 9.99989 13C9.44044 13 9.06978 12.7278 8.8215 12.4299C8.69582 12.2791 8.6064 12.1263 8.54867 12.0108C8.50583 11.9251 8.48203 11.863 8.47531 11.8447C8.448 11.7689 8.40739 11.7001 8.35331 11.6462C8.306 11.5988 8.2485 11.5604 8.18271 11.5346C8.12511 11.512 8.06315 11.4999 7.99989 11.4999C7.93663 11.4999 7.87467 11.512 7.81707 11.5346C7.75117 11.5604 7.6936 11.599 7.64624 11.6464C7.59227 11.7003 7.55174 11.769 7.52447 11.8447C7.51776 11.863 7.49395 11.9251 7.45112 12.0108C7.39338 12.1263 7.30396 12.2791 7.17828 12.4299C6.93001 12.7278 6.55934 13 5.99989 13C5.44044 13 5.06978 12.7278 4.8215 12.4299C4.69582 12.2791 4.6064 12.1263 4.54867 12.0108C4.53027 11.974 4.51494 11.9354 4.4996 11.8967C4.47949 11.8461 4.45938 11.7954 4.43233 11.7488C4.42148 11.7301 4.40952 11.7123 4.39656 11.6954C4.33788 11.6189 4.25648 11.5585 4.15811 11.5257L4.15302 11.524C4.05519 11.4924 3.94678 11.4907 3.84178 11.5257C3.74246 11.5588 3.66044 11.62 3.60164 11.6976C3.58949 11.7136 3.57824 11.7305 3.56798 11.7481C3.54455 11.7883 3.5263 11.8314 3.50803 11.8746C3.49124 11.9143 3.47443 11.954 3.45355 11.9916C3.39336 12.0999 3.29498 12.2479 3.14645 12.3965C2.8589 12.684 2.35872 13 1.5 13C1.22386 13 1 13.2239 1 13.5C1 13.7762 1.22386 14 1.5 14C2.64128 14 3.3911 13.566 3.85355 13.1036C3.89707 13.06 3.93783 13.0165 3.97596 12.9733C4.00056 13.0054 4.02632 13.0378 4.05328 13.0701Z" fill="#212121"/>
</svg>

<svg viewBox="0 0 16 16" fill="none" xmlns="http://www.w3.org/2000/svg" height="1em" width="1em">
  <path d="M6 2.5a.5.5 0 0 1 .5-.5h3a.5.5 0 0 1 .5.5V4h2.5a.5.5 0 0 1 .5.5v3.522l1.199.52a.5.5 0 0 1 .238.7l-1.145 2.061c-.214-.392-.506-.803-1.292-.803-.867 0-1.133.501-1.357.924-.164.309-.305.576-.643.576s-.48-.267-.643-.576C9.133 11 8.867 10.5 8 10.5s-1.133.501-1.357.924C6.48 11.733 6.338 12 6 12s-.48-.267-.643-.576C5.133 11 4.867 10.5 4 10.5c-.786 0-1.078.412-1.292.803l-1.145-2.06A.5.5 0 0 1 1.8 8.54L3 8.021V4.5a.5.5 0 0 1 .5-.5H6V2.5Zm2.994 3.786L12 7.588V5H4v2.588l3.006-1.302a2.5 2.5 0 0 1 1.988 0ZM7 4h2V3H7v1Zm-2.947 9.07c.376.45 1.003.927 1.938.93h.017A2.503 2.503 0 0 0 8 13c.06.08.123.152.187.22.384.4.972.777 1.804.78h-.136.153c.936-.003 1.563-.48 1.939-.93.027-.032.052-.065.077-.097.038.043.079.087.122.13.463.463 1.213.897 2.354.897a.5.5 0 1 0 0-1c-.859 0-1.359-.316-1.646-.604a1.747 1.747 0 0 1-.38-.556.501.501 0 0 0-.947 0 2.194 2.194 0 0 1-.348.59c-.249.298-.62.57-1.18.57-.559 0-.93-.272-1.178-.57a2.197 2.197 0 0 1-.346-.585.497.497 0 0 0-.658-.31.497.497 0 0 0-.293.31 2.198 2.198 0 0 1-.346.585C6.93 12.728 6.56 13 6 13c-.56 0-.93-.272-1.178-.57a2.197 2.197 0 0 1-.273-.42 1.444 1.444 0 0 1-.05-.113c-.02-.05-.04-.102-.067-.148a.5.5 0 0 0-.274-.223l-.005-.002a.497.497 0 0 0-.585.224 1.1 1.1 0 0 0-.06.127 1.21 1.21 0 0 1-.054.117 1.85 1.85 0 0 1-.308.404C2.86 12.684 2.36 13 1.5 13a.5.5 0 0 0 0 1c1.141 0 1.891-.434 2.354-.896.043-.044.084-.087.122-.13.025.031.05.064.077.096Z" fill="#212121"/>
</svg>
